docs/css/image/navicons/testing.svg

<svg height="24" viewBox="0 0 24 24" width="24" xmlns="http://www.w3.org/2000/svg"><path d="m15.7324356 5c-.3458094.59780137-.9921532 1-1.7324356 1h-4c-.74028236 0-1.38662619-.40219863-1.73243561-1h-2.26756439v15h12v-15zm-7.46487121-2c.34580942-.59780137.99215325-1 1.73243561-1h4c.7402824 0 1.3866262.40219863 1.7324356 1h2.2675644c1.1045695 0 2 .8954305 2 2v15c0 1.1045695-.8954305 2-2 2h-12c-1.1045695 0-2-.8954305-2-2v-15c0-1.1045695.8954305-2 2-2zm-.26756439 5h2v2h-2zm0 3h2v2h-2zm0 3h2v2h-2zm3-6h5v2h-5zm0 3h5v2h-5zm0 3h5v2h-5z" fill="#333" fill-rule="evenodd"/></svg>

<svg xmlns="http://www.w3.org/2000/svg" width="24" height="24" viewBox="0 0 24 24">
  <defs>
    <filter id="open-filter">
      <feColorMatrix
        color-interpolation-filters="sRGB"
        type="matrix"
        values="0.4627450980392157 0 0 0 0
                0 0.058823529411764705 0 0 0
                0 0 0.7647058823529411 0 0
                0 0 0 1 0 "/>
    </filter>
   </defs>
  <path fill="#333" fill-rule="evenodd" d="M15.7324356,5 C15.3866262,5.59780137 14.7402824,6 14,6 L10,6 C9.25971764,6 8.61337381,5.59780137 8.26756439,5 L6,5 L6,20 L18,20 L18,5 L15.7324356,5 Z M8.26756439,3 C8.61337381,2.40219863 9.25971764,2 10,2 L14,2 C14.7402824,2 15.3866262,2.40219863 15.7324356,3 L18,3 C19.1045695,3 20,3.8954305 20,5 L20,20 C20,21.1045695 19.1045695,22 18,22 L6,22 C4.8954305,22 4,21.1045695 4,20 L4,5 C4,3.8954305 4.8954305,3 6,3 L8.26756439,3 Z M8,8 L10,8 L10,10 L8,10 L8,8 Z M8,11 L10,11 L10,13 L8,13 L8,11 Z M8,14 L10,14 L10,16 L8,16 L8,14 Z M11,8 L16,8 L16,10 L11,10 L11,8 Z M11,11 L16,11 L16,13 L11,13 L11,11 Z M11,14 L16,14 L16,16 L11,16 L11,14 Z"/>
</svg>
